X:102
T:Lass of Patty's Mill. LIT.102, The
M:4/4
Q:1/4=125
L:1/8
B:Wm. Litten MS, 1802
Z:Village Music Project 2017 Anne Wride
K:D
A2 | GFED FA2 c | d3e f2A2 | Bcdc BAGF | FE6A |
GFED FA2 c | d3ef2A2 | BcdB cdef | c4d2 :|
|: fe | gfed dcBA | d3ef2A2 | Bcdc BAGF | FE6 f/>g |
afge fdBg | fe6A | BcdB cdec | c4d2 :|

